X:860
T:Be a good boy and take care of yourself
A:Wyresdale, Lancashire
B:E and J Winder, 1835-41
L:1/8
M:6/8
O:England
Z:Richard Robinson 
%%TUNEURL: http://www.leeds.ac.uk/music/Info/RRTuneBk/gettune/00001090.html
%%ID:00001090
K:D
A | \
Adf fed | dcB BAA | Adf fed | cde ecc | \
def fed | cBB B2B | Bee ecc | dAd d2d |
dBB BBB | ccc dBB | dBB BBB | ccc dBB | \
BAA AAA | Gdd d2d | !cde edc | def Hf2d | \
dBB Bdd | AFA A2A | Adf e>de | edd d2 |]
%%newpage
%page 69
